material/.icons/material/leaf-off.svg

<svg xmlns="http://www.w3.org/2000/svg" viewBox="0 0 24 24"><path d="M20.84 22.73l-5.7-5.7C13.26 18.79 10.92 20 8 20c-.36 0-.86-.13-1.34-.3L5.71 22l-1.89-.66c1.33-3.31 2.68-7.02 5.84-9.79l-.89-.89c-2.01 1.37-3.91 3.44-5.02 6.59 0 0-1.75-1.75-1.75-3.75C2 12 3.12 9.32 5.72 7.61L1.11 3l1.28-1.27 14 14.01 5.72 5.72-1.27 1.27M17 8c-1.65.37-3.07.88-4.3 1.5l4.8 4.79C20.87 9.35 22 3 22 3c-.97 1.95-7.65 2.24-12.62 3.18l2.77 2.77C14.81 8 17 8 17 8z"/></svg>

<?xml version="1.0" encoding="UTF-8"?><!DOCTYPE svg PUBLIC "-//W3C//DTD SVG 1.1//EN" "http://www.w3.org/Graphics/SVG/1.1/DTD/svg11.dtd"><svg xmlns="http://www.w3.org/2000/svg" xmlns:xlink="http://www.w3.org/1999/xlink" version="1.1" id="mdi-leaf-off" width="24" height="24" viewBox="0 0 24 24"><path d="M20.84 22.73L15.14 17.03C13.26 18.79 10.92 20 8 20C7.64 20 7.14 19.87 6.66 19.7L5.71 22L3.82 21.34C5.15 18.03 6.5 14.32 9.66 11.55L8.77 10.66C6.76 12.03 4.86 14.1 3.75 17.25C3.75 17.25 2 15.5 2 13.5C2 12 3.12 9.32 5.72 7.61L1.11 3L2.39 1.73C2.39 1.73 16.39 15.74 16.39 15.74L22.11 21.46L20.84 22.73M17 8C15.35 8.37 13.93 8.88 12.7 9.5L17.5 14.29C20.87 9.35 22 3 22 3C21.03 4.95 14.35 5.24 9.38 6.18L12.15 8.95C14.81 8 17 8 17 8Z" /></svg>
